icons/svg/tourist/obelisk.svg

<?xml version="1.0" encoding="UTF-8" standalone="no"?>
<!-- Created with Inkscape (http://www.inkscape.org/) -->

<svg
   xmlns:dc="http://purl.org/dc/elements/1.1/"
   xmlns:cc="http://creativecommons.org/ns#"
   xmlns:rdf="http://www.w3.org/1999/02/22-rdf-syntax-ns#"
   xmlns:svg="http://www.w3.org/2000/svg"
   xmlns="http://www.w3.org/2000/svg"
   xmlns:sodipodi="http://sodipodi.sourceforge.net/DTD/sodipodi-0.dtd"
   xmlns:inkscape="http://www.inkscape.org/namespaces/inkscape"
   version="1.0"
   width="580"
   height="580"
   id="svg2"
   sodipodi:version="0.32"
   inkscape:version="0.91 r"
   sodipodi:docname="obelisk.svg"
   inkscape:output_extension="org.inkscape.output.svg.inkscape">
  <metadata
     id="metadata2975">
    <rdf:RDF>
      <cc:Work
         rdf:about="">
        <dc:format>image/svg+xml</dc:format>
        <dc:type
           rdf:resource="http://purl.org/dc/dcmitype/StillImage" />
        <cc:license
           rdf:resource="http://web.resource.org/cc/PublicDomain" />
        <dc:language>en</dc:language>
        <dc:title></dc:title>
      </cc:Work>
    </rdf:RDF>
  </metadata>
  <sodipodi:namedview
     inkscape:window-height="1004"
     inkscape:window-width="1920"
     inkscape:pageshadow="2"
     inkscape:pageopacity="0.0"
     guidetolerance="10.0"
     gridtolerance="10.0"
     objecttolerance="10.0"
     borderopacity="1.0"
     bordercolor="#666666"
     pagecolor="#ffffff"
     id="base"
     inkscape:zoom="0.65172414"
     inkscape:cx="265.62382"
     inkscape:cy="305.11834"
     inkscape:window-x="1680"
     inkscape:window-y="0"
     inkscape:current-layer="svg2"
     showgrid="false"
     inkscape:window-maximized="1" />
  <defs
     id="defs4">
    <inkscape:perspective
       sodipodi:type="inkscape:persp3d"
       inkscape:vp_x="0 : 290 : 1"
       inkscape:vp_y="0 : 1000 : 0"
       inkscape:vp_z="580 : 290 : 1"
       inkscape:persp3d-origin="290 : 193.33333 : 1"
       id="perspective2441" />
    <inkscape:perspective
       id="perspective3452"
       inkscape:persp3d-origin="30 : 20 : 1"
       inkscape:vp_z="60 : 30 : 1"
       inkscape:vp_y="0 : 1000 : 0"
       inkscape:vp_x="0 : 30 : 1"
       sodipodi:type="inkscape:persp3d" />
    <symbol
       viewBox="244.5 110 489 219.9"
       id="symbol-university">
      <path
         id="path4460"
         d="M79,43l57,119c0,0,21-96,104-96s124,106,124,106l43-133l82-17L0,17L79,43z" />
      <path
         id="path4462"
         d="M94,176l-21,39"
         stroke-width="20"
         stroke="#000000"
         fill="none" />
      <path
         id="path4464"
         d="M300,19c0,10.5-22.6,19-50.5,19S199,29.5,199,19s22.6-19,50.5-19S300,8.5,300,19z" />
      <path
         id="path4466"
         d="M112,216l-16-38L64,88c0,0-9-8-4-35s16-24,16-24"
         stroke-width="20"
         stroke="#000000"
         ill="none" />
    </symbol>
    <inkscape:perspective
       id="perspective4471"
       inkscape:persp3d-origin="372.04724 : 350.78739 : 1"
       inkscape:vp_z="744.09448 : 526.18109 : 1"
       inkscape:vp_y="0 : 1000 : 0"
       inkscape:vp_x="0 : 526.18109 : 1"
       sodipodi:type="inkscape:persp3d" />
    <inkscape:perspective
       id="perspective4668"
       inkscape:persp3d-origin="6 : 4 : 1"
       inkscape:vp_z="12 : 6 : 1"
       inkscape:vp_y="0 : 1000 : 0"
       inkscape:vp_x="0 : 6 : 1"
       sodipodi:type="inkscape:persp3d" />
    <inkscape:perspective
       id="perspective5915"
       inkscape:persp3d-origin="0.5 : 0.33333333 : 1"
       inkscape:vp_z="1 : 0.5 : 1"
       inkscape:vp_y="0 : 1000 : 0"
       inkscape:vp_x="0 : 0.5 : 1"
       sodipodi:type="inkscape:persp3d" />
  </defs>
  <g
     id="g1327">
    <path
       d="M 66.275,1.768 C 24.94,1.768 1.704,23.139 1.704,66.804 L 1.704,516.927 C 1.704,557.771 22.599,579.156 63.896,579.156 L 515.92,579.156 C 557.227,579.156 578.149,558.841 578.149,516.927 L 578.149,66.804 C 578.149,24.203 557.227,1.768 514.628,1.768 C 514.624,1.768 66.133,1.625 66.275,1.768 z"
       style="fill:#111111;stroke:#eeeeee;stroke-width:3.40799999"
       id="path1329" />
  </g>
  <path
     inkscape:connector-curvature="0"
     d="m 290.60063,40.734955 c -4.08434,0 -8.16868,1.922044 -12.01277,4.805109 l -19.22042,19.220443 c -3.84411,5.76612 -7.80833,11.532252 -7.80833,19.220436 l -19.22043,333.955087 115.32262,0 -19.22044,-333.955087 c 0,-7.688184 -3.9642,-13.454316 -7.8083,-19.220436 L 301.41214,45.540064 c -2.88307,-2.883065 -6.72715,-4.805109 -10.81149,-4.805109 z M 219.12465,443.16286 c -13.45432,0 -25.22685,11.77251 -25.22685,25.22682 l 0,13.21405 192.2044,0 0,-13.21405 c 0,-13.45431 -11.77253,-25.22682 -25.22683,-25.22682 l -141.75072,0 z m -38.44089,57.66131 c -13.4543,0 -25.22682,11.77251 -25.22682,25.22682 l 0,13.21405 269.08612,0 0,-13.21405 c 0,-13.45431 -11.77253,-25.22682 -25.22683,-25.22682 l -218.63247,0 z"
     id="path4"
     style="fill:#ffffff;fill-opacity:1;stroke:none" />
</svg>

<svg width="580" height="580" viewBox="0 0 580 580" fill="none" xmlns="http://www.w3.org/2000/svg">
<g clip-path="url(#clip0)">
<path d="M66.2751 1.76815C24.9401 1.76815 1.7041 23.1391 1.7041 66.8041V516.927C1.7041 557.771 22.5991 579.156 63.8961 579.156H515.92C557.227 579.156 578.149 558.841 578.149 516.927V66.8041C578.149 24.2031 557.227 1.76815 514.628 1.76815C514.624 1.76815 66.1331 1.62515 66.2751 1.76815Z" fill="#111111" stroke="#EEEEEE" stroke-width="3.408"/>
<path d="M290.601 40.7349C286.516 40.7349 282.432 42.6569 278.588 45.54L259.368 64.7604C255.523 70.5265 251.559 76.2927 251.559 83.9809L232.339 417.936H347.661L328.441 83.9809C328.441 76.2927 324.477 70.5265 320.633 64.7604L301.412 45.54C298.529 42.6569 294.685 40.7349 290.601 40.7349H290.601ZM219.125 443.163C205.67 443.163 193.898 454.935 193.898 468.39V481.604H386.102V468.39C386.102 454.935 374.33 443.163 360.875 443.163H219.125V443.163ZM180.684 500.824C167.23 500.824 155.457 512.597 155.457 526.051V539.265H424.543V526.051C424.543 512.597 412.771 500.824 399.316 500.824H180.684V500.824Z" fill="white"/>
</g>
<defs>
<clipPath id="clip0">
<path d="M0 0H580V580H0V0Z" fill="white"/>
</clipPath>
</defs>
</svg>
